img/logo.svg

<svg width="75" height="24" viewBox="0 0 75 24" fill="none" xmlns="http://www.w3.org/2000/svg">
<path d="M9 0C3.648 0 0 3.648 0 9C0 14.256 3.72 17.856 9 17.856C11.376 17.856 13.752 17.376 16.008 16.176V7.488H9.504V10.224H12.984V14.232C11.784 14.904 10.296 15.12 9.024 15.12C5.376 15.12 3.168 12.312 3.168 8.808C3.168 5.424 5.52 2.736 9 2.736C10.584 2.736 12.288 3.288 13.44 4.392L15.672 2.136C13.872 0.503999 11.352 0 9 0Z" fill="#222222"/>
<path d="M24.6637 5.616C23.1517 5.616 21.8797 6.408 21.2557 7.728H21.2077V5.904H18.3277V17.424H21.2077V11.424C21.2077 9.888 22.1197 8.352 24.3037 8.352C24.7357 8.352 25.1437 8.424 25.6957 8.568V5.784C25.3117 5.688 25.0957 5.616 24.6637 5.616Z" fill="#222222"/>
<path d="M31.5278 5.616C29.2718 5.616 27.6638 6.408 26.6318 7.464L28.1438 8.976C28.9358 8.256 30.0158 7.776 31.2158 7.776C32.7998 7.776 33.8558 8.568 33.8558 9.912V10.248H32.9678C28.0238 10.248 25.8878 11.592 25.8878 14.256C25.8878 16.368 27.7118 17.712 30.0878 17.712C31.6238 17.712 32.9678 17.136 33.7838 15.84H33.8558V17.424H36.4478V10.536C36.4478 7.824 35.4638 5.616 31.5278 5.616ZM28.7678 14.04C28.7678 12.816 30.3038 12.264 32.8478 12.264H33.6878V12.984C33.6878 14.448 32.7758 15.552 30.8078 15.552C29.7278 15.552 28.7678 15.024 28.7678 14.04Z" fill="#222222"/>
<path d="M36.9864 5.904L41.6904 17.424H44.7624L49.2984 5.904H46.3464L43.2504 13.968H43.2024L40.1304 5.904H36.9864Z" fill="#222222"/>
<path d="M51.4557 0.263999C50.4237 0.263999 49.6317 1.056 49.6317 1.992C49.6317 2.928 50.4237 3.72 51.4557 3.72C52.4878 3.72 53.3278 3.024 53.3278 1.992C53.3278 1.008 52.5117 0.263999 51.4557 0.263999ZM50.0397 5.904V17.424H52.9198V5.904H50.0397Z" fill="#222222"/>
<path d="M56.2581 2.568V5.904H53.8821V8.352H56.2581V13.752C56.2581 16.656 57.3141 17.712 60.0261 17.712C60.6741 17.712 61.7541 17.592 62.3061 17.328V14.904C62.0661 15.096 61.4661 15.264 60.7461 15.264C59.6181 15.264 59.1381 14.688 59.1381 13.464V8.352H62.3061V5.904H59.1381V2.568H56.2581Z" fill="#222222"/>
<path d="M61.9942 5.904L66.9142 17.52L66.4102 18.768C65.8822 20.04 65.5943 20.592 64.0823 20.592C63.5783 20.592 63.0742 20.472 62.6182 20.304L62.2582 22.896C62.9782 23.088 63.7222 23.184 64.4662 23.184C67.3462 23.184 68.1143 21.768 69.0502 19.392L74.3063 5.904H71.3063L68.4262 13.896H68.3783L65.1622 5.904H61.9942Z" fill="#222222"/>
</svg>

<svg xmlns="http://www.w3.org/2000/svg" fill="none" viewBox="0 0 75 24"><path fill="#222" d="M9 0C3.648 0 0 3.648 0 9c0 5.256 3.72 8.856 9 8.856 2.376 0 4.752-.48 7.008-1.68V7.488H9.504v2.736h3.48v4.008c-1.2.672-2.688.888-3.96.888-3.648 0-5.856-2.808-5.856-6.312C3.168 5.424 5.52 2.736 9 2.736c1.584 0 3.288.552 4.44 1.656l2.232-2.256C13.872.504 11.352 0 9 0zM24.664 5.616c-1.512 0-2.784.792-3.408 2.112h-.048V5.904h-2.88v11.52h2.88v-6c0-1.536.912-3.072 3.096-3.072.432 0 .84.072 1.392.216V5.784c-.384-.096-.6-.168-1.032-.168zM31.528 5.616c-2.256 0-3.864.792-4.896 1.848l1.512 1.512a4.577 4.577 0 0 1 3.072-1.2c1.584 0 2.64.792 2.64 2.136v.336h-.888c-4.944 0-7.08 1.344-7.08 4.008 0 2.112 1.824 3.456 4.2 3.456 1.536 0 2.88-.576 3.696-1.872h.072v1.584h2.592v-6.888c0-2.712-.984-4.92-4.92-4.92zm-2.76 8.424c0-1.224 1.536-1.776 4.08-1.776h.84v.72c0 1.464-.912 2.568-2.88 2.568-1.08 0-2.04-.528-2.04-1.512zM36.986 5.904l4.704 11.52h3.072l4.536-11.52h-2.952l-3.096 8.064h-.048L40.13 5.904h-3.144zM51.456.264c-1.032 0-1.824.792-1.824 1.728 0 .936.792 1.728 1.824 1.728s1.872-.696 1.872-1.728c0-.984-.816-1.728-1.872-1.728zm-1.416 5.64v11.52h2.88V5.904h-2.88zM56.258 2.568v3.336h-2.376v2.448h2.376v5.4c0 2.904 1.056 3.96 3.768 3.96.648 0 1.728-.12 2.28-.384v-2.424c-.24.192-.84.36-1.56.36-1.128 0-1.608-.576-1.608-1.8V8.352h3.168V5.904h-3.168V2.568h-2.88z"/><path fill="#222" d="M61.994 5.904l4.92 11.616-.504 1.248c-.528 1.272-.816 1.824-2.328 1.824-.504 0-1.008-.12-1.464-.288l-.36 2.592c.72.192 1.464.288 2.208.288 2.88 0 3.648-1.416 4.584-3.792l5.256-13.488h-3l-2.88 7.992h-.048l-3.216-7.992h-3.168z"/></svg>
